src/assets/images/grille.svg

<svg width="322" height="104" fill="none" xmlns="http://www.w3.org/2000/svg"><path d="M1 0v104M9 0v104M17 0v104M25 0v104M33 0v104M41 0v104M49 0v104M57 0v104M65 0v104M73 0v104M81 0v104M89 0v104M97 0v104m8-104v104m8-104v104m8-104v104m8-104v104m8-104v104m8-104v104m8-104v104m8-104v104m8-104v104m8-104v104m8-104v104m8-104v104m8-104v104m8-104v104m8-104v104m8-104v104m8-104v104m8-104v104m8-104v104m8-104v104m8-104v104m8-104v104m8-104v104m8-104v104m8-104v104m8-104v104m8-104v104m8-104v104M1 100h320M1 4h320M1 12h320M1 20h320M1 28h320M1 36h320M1 44h320M1 52h320M1 60h320M1 68h320M1 76h320M1 84h320M1 92h320" stroke="#000" stroke-width=".5"/></svg>

<svg width="322" height="104" viewBox="0 0 322 104" fill="none" xmlns="http://www.w3.org/2000/svg">
<path d="M1 0V104M9 0V104M17 0V104M25 0V104M33 0V104M41 0V104M49 0V104M57 0V104M65 0V104M73 0V104M81 0V104M89 0V104M97 0V104M105 0V104M113 0V104M121 0V104M129 0V104M137 0V104M145 0V104M153 0V104M161 0V104M169 0V104M177 0V104M185 0V104M193 0V104M201 0V104M209 0V104M217 0V104M225 0V104M233 0V104M241 0V104M249 0V104M257 0V104M265 0V104M273 0V104M281 0V104M289 0V104M297 0V104M305 0V104M313 0V104M321 0V104" stroke="black" stroke-width="0.5"/>
<path d="M1 100H321" stroke="black" stroke-width="0.5"/>
<path d="M1 4H321M1 12H321M1 20H321M1 28H321M1 36H321M1 44H321M1 52H321M1 60H321M1 68H321M1 76H321M1 84H321M1 92H321" stroke="black" stroke-width="0.5"/>
</svg>
